Newaita/actions/24/distribute-horizontal-right.svg

<svg height="24" viewBox="0 0 24 24" width="24" xmlns="http://www.w3.org/2000/svg"><g fill="#424242"><path d="m13.394531 2.171875v3.96875l-2.480469-1.984375zm0 0"/><path d="m20.839844 7.132812c.546875 0 .992187.441407.992187.992188v4.960938c0 .550781-.445312.992187-.992187.992187h-4.964844c-.546875 0-.992188-.441406-.992188-.992187v-4.960938c0-.550781.445313-.992188.992188-.992188zm-1.492188 1.984376h-1.984375c-.273437 0-.496093.222656-.496093.496093v1.984375c0 .277344.222656.496094.496093.496094h1.984375c.277344 0 .496094-.21875.496094-.496094v-1.984375c0-.273437-.21875-.496093-.496094-.496093zm0 0"/><path d="m21.335938 2.171875h-.996094c-.273438 0-.496094.222656-.496094.496094v18.855469c0 .273437.222656.496093.496094.496093h.996094c.273437 0 .496093-.222656.496093-.496093v-18.855469c0-.273438-.222656-.496094-.496093-.496094zm0 0"/><path d="m7.9375 7.132812c.550781 0 .992188.441407.992188.992188v8.433594c0 .550781-.441407.992187-.992188.992187h-4.960938c-.550781 0-.992187-.441406-.992187-.992187v-8.433594c0-.550781.441406-.992188.992187-.992188zm-1.488281 1.984376h-1.984375c-.273438 0-.496094.222656-.496094.496093v5.457031c0 .277344.222656.496094.496094.496094h1.984375c.277343 0 .496093-.21875.496093-.496094v-5.457031c0-.273437-.21875-.496093-.496093-.496093zm0 0"/><path d="m8.433594 2.171875h-.992188c-.273437 0-.496094.222656-.496094.496094v18.855469c0 .273437.222657.496093.496094.496093h.992188c.273437 0 .496094-.222656.496094-.496093v-18.855469c0-.273438-.222657-.496094-.496094-.496094zm0 0"/><path d="m15.378906 2.171875v3.96875l2.480469-1.984375zm0 0"/></g></svg>

<svg xmlns="http://www.w3.org/2000/svg" xmlns:xlink="http://www.w3.org/1999/xlink" width="24px" height="24px" viewBox="0 0 24 24" version="1.1">
<g id="surface1">
     <defs>
  <style id="current-color-scheme" type="text/css">
   .ColorScheme-Text { color:#424242; } .ColorScheme-Highlight { color:#eeeeee; }
  </style>
 </defs>
<path style="fill:currentColor" class="ColorScheme-Text" d="M 13.394531 2.171875 L 13.394531 6.140625 L 10.914062 4.15625 Z M 13.394531 2.171875 "/>
     <defs>
  <style id="current-color-scheme" type="text/css">
   .ColorScheme-Text { color:#424242; } .ColorScheme-Highlight { color:#eeeeee; }
  </style>
 </defs>
<path style="fill:currentColor" class="ColorScheme-Text" d="M 20.839844 7.132812 C 21.386719 7.132812 21.832031 7.574219 21.832031 8.125 L 21.832031 13.085938 C 21.832031 13.636719 21.386719 14.078125 20.839844 14.078125 L 15.875 14.078125 C 15.328125 14.078125 14.882812 13.636719 14.882812 13.085938 L 14.882812 8.125 C 14.882812 7.574219 15.328125 7.132812 15.875 7.132812 Z M 19.347656 9.117188 L 17.363281 9.117188 C 17.089844 9.117188 16.867188 9.339844 16.867188 9.613281 L 16.867188 11.597656 C 16.867188 11.875 17.089844 12.09375 17.363281 12.09375 L 19.347656 12.09375 C 19.625 12.09375 19.84375 11.875 19.84375 11.597656 L 19.84375 9.613281 C 19.84375 9.339844 19.625 9.117188 19.347656 9.117188 Z M 19.347656 9.117188 "/>
     <defs>
  <style id="current-color-scheme" type="text/css">
   .ColorScheme-Text { color:#424242; } .ColorScheme-Highlight { color:#eeeeee; }
  </style>
 </defs>
<path style="fill:currentColor" class="ColorScheme-Text" d="M 21.335938 2.171875 L 20.339844 2.171875 C 20.066406 2.171875 19.84375 2.394531 19.84375 2.667969 L 19.84375 21.523438 C 19.84375 21.796875 20.066406 22.019531 20.339844 22.019531 L 21.335938 22.019531 C 21.609375 22.019531 21.832031 21.796875 21.832031 21.523438 L 21.832031 2.667969 C 21.832031 2.394531 21.609375 2.171875 21.335938 2.171875 Z M 21.335938 2.171875 "/>
     <defs>
  <style id="current-color-scheme" type="text/css">
   .ColorScheme-Text { color:#424242; } .ColorScheme-Highlight { color:#eeeeee; }
  </style>
 </defs>
<path style="fill:currentColor" class="ColorScheme-Text" d="M 7.9375 7.132812 C 8.488281 7.132812 8.929688 7.574219 8.929688 8.125 L 8.929688 16.558594 C 8.929688 17.109375 8.488281 17.550781 7.9375 17.550781 L 2.976562 17.550781 C 2.425781 17.550781 1.984375 17.109375 1.984375 16.558594 L 1.984375 8.125 C 1.984375 7.574219 2.425781 7.132812 2.976562 7.132812 Z M 6.449219 9.117188 L 4.464844 9.117188 C 4.191406 9.117188 3.96875 9.339844 3.96875 9.613281 L 3.96875 15.070312 C 3.96875 15.347656 4.191406 15.566406 4.464844 15.566406 L 6.449219 15.566406 C 6.726562 15.566406 6.945312 15.347656 6.945312 15.070312 L 6.945312 9.613281 C 6.945312 9.339844 6.726562 9.117188 6.449219 9.117188 Z M 6.449219 9.117188 "/>
     <defs>
  <style id="current-color-scheme" type="text/css">
   .ColorScheme-Text { color:#424242; } .ColorScheme-Highlight { color:#eeeeee; }
  </style>
 </defs>
<path style="fill:currentColor" class="ColorScheme-Text" d="M 8.433594 2.171875 L 7.441406 2.171875 C 7.167969 2.171875 6.945312 2.394531 6.945312 2.667969 L 6.945312 21.523438 C 6.945312 21.796875 7.167969 22.019531 7.441406 22.019531 L 8.433594 22.019531 C 8.707031 22.019531 8.929688 21.796875 8.929688 21.523438 L 8.929688 2.667969 C 8.929688 2.394531 8.707031 2.171875 8.433594 2.171875 Z M 8.433594 2.171875 "/>
     <defs>
  <style id="current-color-scheme" type="text/css">
   .ColorScheme-Text { color:#424242; } .ColorScheme-Highlight { color:#eeeeee; }
  </style>
 </defs>
<path style="fill:currentColor" class="ColorScheme-Text" d="M 15.378906 2.171875 L 15.378906 6.140625 L 17.859375 4.15625 Z M 15.378906 2.171875 "/>
</g>
</svg>
